X:1
T:The Bible
T:The Bible
T:Anonymous
T:Public Domain Courtesy of the Cyber Hymnal™
C:Anonymous
Z:Public Domain
Z:Courtesy of the Cyber Hymnal™
%%score 1 2
L:1/8
Q:1/4=170
M:4/4
K:D
V:1 treble 
V:2 bass 
V:1
 [DF]2 | [DA]2 [DA]2 [DA]2 [DF]2 | [DA]6 [DA]2 | [DB]3 [DB] [GB]2 [DG]2 | [GB]6 [GB]2 | %5
w: The|B- I- B- L-|E, Yes,|that’s the book for|me; I|
 [Gc]2 [Gc]2 [Gc]2 [GB][GA] | [Gc]2 [Gc]2 [Gc]3 [GB] | [GA]2 [GA]2 [GB]2 [Gc]2 | [Fd]6 |] %9
w: stand a- lone on the|Word of God; The|B- I- B- L-|E.|
V:2
 [D,A,]2 | [D,F,]2 [D,F,]2 [D,F,]2 [D,A,]2 | [D,F,]6 [D,F,]2 | [G,,G,]3 [B,,G,] [D,G,]2 [G,B,]2 | %4
 [G,D]6 [G,D]2 | [A,E]2 [A,E]2 [A,E]2 [A,D][A,C] | [A,E]2 [A,E]2 [A,E]3 [A,D] | %7
 [A,C]2 [A,C]2 [A,D]2 [A,E]2 | [D,D]6 |] %9

